src/actions/16/draw-path.svg

<svg xmlns="http://www.w3.org/2000/svg" viewBox="0 0 16 16">
  <defs id="defs3051">
    <style type="text/css" id="current-color-scheme">
      .ColorScheme-Text {
        color:#363636;
      }
      </style>
  </defs>
 <path style="fill:currentColor;fill-opacity:1;stroke:none" 
     d="M 2 2 L 2 5 L 3 5 L 3 10 L 3 10.111328 L 2 11.125 L 2 12.5 L 2 14 C 2.5669591 14.009969 2.9082961 14.002744 3.5 14 C 4.0300681 13.997542 4.84375 14 4.84375 14 C 4.8476677 14.000164 5.6326634 13.194382 5.8261719 13 L 6 13 L 11 13 L 11 14 L 14 14 L 14 11 L 13 11 L 12 11 L 11 11 L 11 12 L 6.8105469 12 C 9.2200533 9.5566597 13.84375 4.84375 13.84375 4.84375 L 11 2 L 4 9.0976562 L 4 5 L 5 5 L 5 4 L 5 3 L 5 2 L 2 2 z M 3 3 L 4 3 L 4 4 L 3 4 L 3 3 z M 10.28125 4.15625 L 11.6875 5.5625 L 6.2734375 11.123047 L 4.8652344 9.7265625 L 10.28125 4.15625 z M 13.96875 9 C 13.96175 9.00003 13.939141 9.0058594 13.931641 9.0058594 L 14 9.0058594 C 13.9879 9.0038588 13.98115 9.002 13.96875 9 z M 12 12 L 13 12 L 13 13 L 12 13 L 12 12 z "
     class="ColorScheme-Text"
     />
</svg>

<svg xmlns="http://www.w3.org/2000/svg" viewBox="0 0 16 16">
    <path d="M2 2v3h1v5.111l-1 1.014V14c.567.01.908.003 1.5 0 .53-.002 1.344 0 1.344 0 .004 0 .789-.806.982-1H11v1h3v-3h-3v1H6.81c2.41-2.443 7.034-7.156 7.034-7.156L11 2 4 9.098V5h1V2H2zm1 1h1v1H3V3zm7.281 1.156 1.406 1.407-5.414 5.56-1.408-1.396 5.416-5.57zM13.97 9c-.007 0-.03.006-.037.006H14L13.969 9zM12 12h1v1h-1v-1z" style="fill:currentColor;fill-opacity:1;stroke:none;color:#050505;opacity:.7"/>
</svg>
